fs/beaker_edit_20_regular.svg

<svg viewBox="0 0 20 20" fill="none" xmlns="http://www.w3.org/2000/svg" height="1em" width="1em">
  <path d="M4.49988 3H5.24987V7.74704C5.24987 8.15896 5.14809 8.5645 4.95357 8.9276L2.34783 13.7916C1.81252 14.7909 2.53644 15.9999 3.67005 15.9999H9.47468C9.58469 15.6384 9.75771 15.3 9.98506 14.9999H3.67005C3.29218 14.9999 3.05087 14.5969 3.22931 14.2638L4.70995 11.5H11.2898L12.0408 12.9019L12.7795 12.1631L11.0462 8.9276C10.8517 8.5645 10.7499 8.15896 10.7499 7.74704V3H11.4999C11.776 3 11.9999 2.77614 11.9999 2.5C11.9999 2.22386 11.776 2 11.4999 2H4.49988C4.22374 2 3.99988 2.22386 3.99988 2.5C3.99988 2.77614 4.22374 3 4.49988 3ZM6.24987 7.74704V3H9.74987V7.74704C9.74987 8.32373 9.89237 8.89149 10.1647 9.39983L10.7541 10.5H5.24567L5.83505 9.39983C6.10738 8.89149 6.24987 8.32373 6.24987 7.74704ZM10.9798 15.3772L15.8092 10.5478C16.5395 9.81741 17.7237 9.81741 18.454 10.5478C19.1843 11.2781 19.1843 12.4622 18.454 13.1926L13.6246 18.022C13.343 18.3036 12.9902 18.5033 12.6039 18.5999L11.106 18.9744C10.4546 19.1372 9.86451 18.5472 10.0274 17.8958L10.4018 16.3979C10.4984 16.0116 10.6982 15.6588 10.9798 15.3772Z" fill="#212121"/>
</svg>

<svg viewBox="0 0 20 20" fill="none" xmlns="http://www.w3.org/2000/svg" height="1em" width="1em">
  <path d="M4.5 3h.75v4.747a2.5 2.5 0 0 1-.296 1.18l-2.606 4.865A1.5 1.5 0 0 0 3.67 16h5.805c.11-.362.283-.7.51-1H3.67a.5.5 0 0 1-.44-.736L4.71 11.5h6.58l.75 1.402.74-.739-1.734-3.235a2.5 2.5 0 0 1-.296-1.181V3h.75a.5.5 0 0 0 0-1h-7a.5.5 0 0 0 0 1Zm1.75 4.747V3h3.5v4.747a3.5 3.5 0 0 0 .415 1.653l.59 1.1h-5.51l.59-1.1a3.5 3.5 0 0 0 .415-1.653Zm4.73 7.63 4.83-4.83a1.87 1.87 0 1 1 2.644 2.646l-4.83 4.829a2.197 2.197 0 0 1-1.02.578l-1.498.374a.89.89 0 0 1-1.079-1.078l.375-1.498a2.18 2.18 0 0 1 .578-1.02Z" fill="#212121"/>
</svg>
